remix/Map/map-pin-4-fill.svg

<svg viewBox="0 0 24 24" fill="currentColor" xmlns="http://www.w3.org/2000/svg"><path d="M11 17.9381C7.05369 17.446 4 14.0796 4 10C4 5.58172 7.58172 2 12 2C16.4183 2 20 5.58172 20 10C20 14.0796 16.9463 17.446 13 17.9381V21H11V17.9381ZM5 22H19V24H5V22Z"/></svg>

<svg viewBox="0 0 24 24" xmlns="http://www.w3.org/2000/svg"><path fill="none" d="M0 0h24v24H0Z"/><path d="M11 17.938v0c-4.39-.56-7.49-4.57-6.93-8.95 .5-4 3.9-6.99 7.92-7v0c4.41-.01 8 3.57 8 7.99 0 4.03-3.01 7.44-7.01 7.94v3.06h-2V17.9Zm-6 4.06h14v2H5v-2Z"/></svg>
